static/images/navcash-logo.svg

<svg height="1024" viewBox="0 0 1017 1024" width="1017" xmlns="http://www.w3.org/2000/svg" xmlns:xlink="http://www.w3.org/1999/xlink"><linearGradient id="a" x1="85.0995%" x2="15.512071%" y1="23.76691%" y2="76.003778%"><stop offset="0" stop-color="#0a87f5"/><stop offset="1" stop-color="#dc1eb9"/></linearGradient><g fill="none"><path d="m252.338688 82.516294h673.669852v405.723925h-673.669852z" fill="#0a87f5" transform="matrix(-.97175567 .23598924 -.23598924 -.97175567 1229.05261 423.657563)"/><path d="m72.244007 105.939916h664.085079v408.598974h-664.085079z" fill="#9b3fcc" transform="matrix(-.93318572 .3593945 -.3593945 -.93318572 893.059314 454.452022)"/><path d="m787.302843 380.836518-147.035158-380.836518-130.166325 49.9990037v437.3186723z" fill="#7154d8"/><path d="m896.757114 1023.51422h-777.10879c-65.8051889 0-119.648324-53.80944-119.648324-119.579612v-625.355001c0-65.767396 53.8403581-119.579607 119.648324-119.579607h777.10879c65.80519 0 119.648326 53.809436 119.648326 119.579607v625.355001c0 65.767396-53.843136 119.579612-119.648326 119.579612z" fill="#ebebeb"/><path d="m688.119411 343c14.525533 0 26.311966 12.324413 26.546242 26.805597l.003554.439473v194.208452c0 .308656.250248.558872.558944.558872h40.942581c14.817396 0 26.829268 12.010372 26.829268 26.825916s-12.011872 26.825915-26.829268 26.825915h-40.942581c-.308696 0-.558944.250217-.558944.558874v192.531831c0 14.523718-10.271627 25.623989-24.713536 25.844542l-.438903.003345h-2.794715c-11.691954 0-19.99883-6.76931-28.252814-16.309809l-.393019-.456389-157.947101-201.957788c-.105934-.135453-.268332-.214606-.440304-.214606h-144.280279c-.308695 0-.558943.250217-.558943.558874v192.531831c0 14.523718-11.641177 26.993368-26.788404 27.24507h-.460071c-14.525534 0-26.311967-12.324413-26.546243-26.805597l-.003554-.439473v-192.531831c0-.308657-.250248-.558874-.558943-.558874h-40.66311c-14.817396 0-26.829268-12.010371-26.829268-26.825915s12.011872-26.825916 26.829268-26.825916h40.66311c.308695 0 .558943-.250216.558943-.558872v-192.811269c0-14.523718 12.325952-26.993367 26.808948-27.241308l.439528-.003762h7.685468c12.189258 0 19.784104 5.906365 27.237583 15.174812l.709571.892794 160.244355 204.333585c.105952.135106.268135.21402.439844.21402h135.695374c.308695 0 .558943-.250216.558943-.558872v-194.208452c0-14.523718 11.641177-26.993367 26.788404-27.24507zm-27.807419 275.664225h-92.742687c-.308696 0-.558943.250217-.558943.558874 0 .125035.041934.24646.119097.344852l92.742687 118.259863c.190482.242889.541821.285395.784742.094937.135123-.105941.214047-.268101.214047-.439791v-118.259861c0-.308657-.250248-.558874-.558943-.558874zm-305.462399-183.92397v129.713267c0 .308656.250248.558872.558943.558872h101.446254c.308695 0 .558943-.250216.558943-.558872 0-.124781-.041764-.245974-.118638-.344268l-101.446254-129.713266c-.190157-.243143-.541442-.286116-.784615-.095982-.135469.105921-.214633.2683-.214633.440249z" fill="url(#a)"/></g></svg>

<?xml version="1.0" encoding="UTF-8"?>
<svg width="1017px" height="1024px" viewBox="0 0 1017 1024" version="1.1" xmlns="http://www.w3.org/2000/svg" xmlns:xlink="http://www.w3.org/1999/xlink">
    <!-- Generator: Sketch 63.1 (92452) - https://sketch.com -->
    <title>navcash-logo</title>
    <desc>Created with Sketch.</desc>
    <defs>
        <linearGradient x1="85.0995%" y1="23.7669099%" x2="15.5120713%" y2="76.0037775%" id="linearGradient-1">
            <stop stop-color="#0A87F5" offset="0%"></stop>
            <stop stop-color="#DC1EB9" offset="100%"></stop>
        </linearGradient>
    </defs>
    <g id="Page-1" stroke="none" stroke-width="1" fill="none" fill-rule="evenodd">
        <g id="navcash-logo" fill-rule="nonzero">
            <g id="11420438181578889032">
                <polygon id="Rectangle" fill="#0A87F5" transform="translate(589.173614, 285.378256) rotate(166.350058) translate(-589.173614, -285.378256) " points="252.338688 82.516294 926.00854 82.516294 926.00854 488.240219 252.338688 488.240219"></polygon>
                <polygon id="Rectangle" fill="#9B3FCC" transform="translate(404.286546, 310.239403) rotate(158.936985) translate(-404.286546, -310.239403) " points="72.244007 105.939916 736.329086 105.939916 736.329086 514.53889 72.244007 514.53889"></polygon>
                <polygon id="Path" fill="#7154D8" points="787.302843 380.836518 640.267685 0 510.10136 49.9990037 510.10136 487.317676"></polygon>
                <path d="M896.757114,1023.51422 L119.648324,1023.51422 C53.8431351,1023.51422 0,969.70478 0,903.934608 L0,278.579607 C0,212.812211 53.8403581,159 119.648324,159 L896.757114,159 C962.562304,159 1016.40544,212.809436 1016.40544,278.579607 L1016.40544,903.934608 C1016.40544,969.702004 962.562304,1023.51422 896.757114,1023.51422 Z" id="Path" fill="#EBEBEB"></path>
            </g>
            <path d="M688.119411,343 C702.644944,343 714.431377,355.324413 714.665653,369.805597 L714.669207,370.24507 L714.669207,564.453522 C714.669207,564.762178 714.919455,565.012394 715.228151,565.012394 L756.170732,565.012394 L756.170732,565.012394 C770.988128,565.012394 783,577.022766 783,591.83831 C783,606.653854 770.988128,618.664225 756.170732,618.664225 L715.228151,618.664225 C714.919455,618.664225 714.669207,618.914442 714.669207,619.223099 L714.669207,811.75493 L714.669207,811.75493 C714.669207,826.278648 704.39758,837.378919 689.955671,837.599472 L689.516768,837.602817 L686.722053,837.602817 C675.030099,837.602817 666.723223,830.833507 658.469239,821.293008 L658.07622,820.836619 L500.129119,618.878831 C500.023185,618.743378 499.860787,618.664225 499.688815,618.664225 L355.408536,618.664225 C355.099841,618.664225 354.849593,618.914442 354.849593,619.223099 L354.849593,811.75493 L354.849593,811.75493 C354.849593,826.278648 343.208416,838.748298 328.061189,839 L327.601118,839 C313.075584,839 301.289151,826.675587 301.054875,812.194403 L301.051321,811.75493 L301.051321,619.223099 C301.051321,618.914442 300.801073,618.664225 300.492378,618.664225 L259.829268,618.664225 L259.829268,618.664225 C245.011872,618.664225 233,606.653854 233,591.83831 C233,577.022766 245.011872,565.012394 259.829268,565.012394 L300.492378,565.012394 C300.801073,565.012394 301.051321,564.762178 301.051321,564.453522 L301.051321,371.642253 L301.051321,371.642253 C301.051321,357.118535 313.377273,344.648886 327.860269,344.400945 L328.299797,344.397183 L335.985265,344.397183 C348.174523,344.397183 355.769369,350.303548 363.222848,359.571995 L363.932419,360.464789 L524.176774,564.798374 C524.282726,564.93348 524.444909,565.012394 524.616618,565.012394 L660.311992,565.012394 C660.620687,565.012394 660.870935,564.762178 660.870935,564.453522 L660.870935,370.24507 L660.870935,370.24507 C660.870935,355.721352 672.512112,343.251703 687.659339,343 L688.119411,343 Z M660.311992,618.664225 L567.569305,618.664225 C567.260609,618.664225 567.010362,618.914442 567.010362,619.223099 C567.010362,619.348134 567.052296,619.469559 567.129459,619.567951 L659.872146,737.827814 C660.062628,738.070703 660.413967,738.113209 660.656888,737.922751 C660.792011,737.81681 660.870935,737.65465 660.870935,737.48296 L660.870935,619.223099 C660.870935,618.914442 660.620687,618.664225 660.311992,618.664225 Z M354.849593,434.740255 L354.849593,564.453522 C354.849593,564.762178 355.099841,565.012394 355.408536,565.012394 L456.85479,565.012394 C457.163485,565.012394 457.413733,564.762178 457.413733,564.453522 C457.413733,564.328741 457.371969,564.207548 457.295095,564.109254 L355.848841,434.395988 C355.658684,434.152845 355.307399,434.109872 355.064226,434.300006 C354.928757,434.405927 354.849593,434.568306 354.849593,434.740255 Z" id="Shape" fill="url(#linearGradient-1)"></path>
        </g>
    </g>
</svg>
